packages/crs-framework/resources/svg/condition.svg

<svg width="24" height="24" viewBox="0 0 24 24" fill="none" xmlns="http://www.w3.org/2000/svg">
<path fill-rule="evenodd" clip-rule="evenodd" d="M8.33333 5.15837V4.57919C8.33333 4.41026 8.28423 4.27149 8.18601 4.1629C8.0878 4.0543 7.9623 4 7.80952 4H6.2381C5.45238 4 4.77579 4.31373 4.20833 4.94118C3.64087 5.56863 3.35714 6.31674 3.35714 7.18552V8.92308H1.52381C1.37103 8.92308 1.24554 8.97738 1.14732 9.08597C1.04911 9.19457 1 9.33333 1 9.50226V10.0814C1 10.2504 1.04911 10.3891 1.14732 10.4977C1.24554 10.6063 1.37103 10.6606 1.52381 10.6606H3.35714V15.8733C3.35714 16.2836 3.23165 16.6274 2.98065 16.905C2.72966 17.1825 2.41865 17.3213 2.04762 17.3213H1.52381C1.37103 17.3213 1.24554 17.3756 1.14732 17.4842C1.04911 17.5928 1 17.7315 1 17.9005V18.4796C1 18.6486 1.04911 18.7873 1.14732 18.8959C1.24554 19.0045 1.37103 19.0588 1.52381 19.0588H2.04762C2.83333 19.0588 3.50992 18.7451 4.07738 18.1176C4.64484 17.4902 4.92857 16.7421 4.92857 15.8733V10.6606H6.7619C6.91468 10.6606 7.04018 10.6063 7.13839 10.4977C7.23661 10.3891 7.28571 10.2504 7.28571 10.0814V9.50226C7.28571 9.33333 7.23661 9.19457 7.13839 9.08597C7.04018 8.97738 6.91468 8.92308 6.7619 8.92308H4.92857V7.18552C4.92857 6.77526 5.05407 6.43137 5.30506 6.15385C5.55605 5.87632 5.86706 5.73756 6.2381 5.73756H7.80952C7.9623 5.73756 8.0878 5.68326 8.18601 5.57466C8.28423 5.46606 8.33333 5.3273 8.33333 5.15837ZM11.9974 6.73441C11.9851 6.5875 11.9053 6.46508 11.758 6.36714L11.3161 5.99988C11.1688 5.90194 11.0154 5.86521 10.8558 5.8897C10.6962 5.91418 10.5674 5.99988 10.4692 6.14678C9.78176 7.12616 9.25395 8.20346 8.8857 9.37871C8.51746 10.554 8.33333 11.7414 8.33333 12.9412C8.33333 14.1409 8.51746 15.3284 8.8857 16.5036C9.25395 17.6789 9.78176 18.7562 10.4692 19.7356C10.5674 19.8825 10.6962 19.9682 10.8558 19.9927C11.0154 20.0171 11.1688 19.9804 11.3161 19.8825L11.758 19.5152C11.9053 19.4173 11.9851 19.2949 11.9974 19.1479C12.0096 19.001 11.979 18.8541 11.9053 18.7072C11.3161 17.8748 10.8681 16.9627 10.5612 15.9711C10.2543 14.9795 10.1009 13.9695 10.1009 12.9412C10.1009 11.9128 10.2543 10.9029 10.5612 9.91124C10.8681 8.91963 11.3161 8.00759 11.9053 7.17512C11.979 7.02822 12.0096 6.88131 11.9974 6.73441ZM20.8642 6.14678C21.5516 7.12616 22.0794 8.20346 22.4476 9.37871C22.8159 10.554 23 11.7414 23 12.9412C23 14.1409 22.8159 15.3284 22.4476 16.5036C22.0794 17.6789 21.5516 18.7562 20.8642 19.7356C20.766 19.8825 20.6371 19.9682 20.4775 19.9927C20.318 20.0171 20.1645 19.9804 20.0172 19.8825L19.5753 19.5152C19.428 19.4173 19.3482 19.2949 19.336 19.1479C19.3237 19.001 19.3544 18.8541 19.428 18.7072C20.0172 17.8748 20.4652 16.9627 20.7721 15.9711C21.079 14.9795 21.2324 13.9695 21.2324 12.9412C21.2324 11.9128 21.079 10.9029 20.7721 9.91124C20.4652 8.91963 20.0172 8.00759 19.428 7.17512C19.3544 7.02822 19.3237 6.88131 19.336 6.73441C19.3452 6.62423 19.3924 6.52782 19.4775 6.44519L20.0172 5.99988C20.1645 5.90194 20.318 5.86521 20.4775 5.8897C20.6371 5.91418 20.766 5.99988 20.8642 6.14678ZM18.2448 10.2118L17.7925 9.74632C17.7131 9.68015 17.6174 9.64706 17.5057 9.64706C17.3568 9.64706 17.225 9.70588 17.1104 9.82353L15.6667 11.3059L14.2229 9.82353C14.1083 9.70588 13.9766 9.64706 13.8276 9.64706C13.6786 9.64706 13.5583 9.70588 13.4667 9.82353L13.0133 10.2879C12.9489 10.3695 12.9167 10.4676 12.9167 10.5824C12.9167 10.7353 12.974 10.8706 13.0885 10.9882L14.5323 12.4706L13.0885 13.9529C12.974 14.0706 12.9167 14.2059 12.9167 14.3588C12.9167 14.5118 12.974 14.6353 13.0885 14.7294L13.5408 15.1949C13.6203 15.261 13.7159 15.2941 13.8276 15.2941C13.9766 15.2941 14.1083 15.2353 14.2229 15.1176L15.6667 13.6353L17.1104 15.1176C17.225 15.2353 17.3568 15.2941 17.5057 15.2941C17.6547 15.2941 17.775 15.2353 17.8667 15.1176L18.32 14.6533C18.3844 14.5717 18.4167 14.4735 18.4167 14.3588C18.4167 14.2059 18.3594 14.0706 18.2448 13.9529L16.801 12.4706L18.2448 10.9882C18.3594 10.8706 18.4167 10.7353 18.4167 10.5824C18.4167 10.4294 18.3594 10.3059 18.2448 10.2118Z" fill="#272C37"/>
</svg>

<svg width="24" height="24" xmlns="http://www.w3.org/2000/svg"><path fill-rule="evenodd" clip-rule="evenodd" d="M8.333 5.158V4.58a.597.597 0 0 0-.147-.416A.485.485 0 0 0 7.81 4H6.238c-.786 0-1.462.314-2.03.941-.567.628-.85 1.376-.85 2.245v1.737H1.523a.485.485 0 0 0-.377.163.597.597 0 0 0-.147.416v.58c0 .168.05.307.147.416a.485.485 0 0 0 .377.163h1.833v5.212c0 .41-.125.754-.376 1.032a1.208 1.208 0 0 1-.933.416h-.524a.485.485 0 0 0-.377.163A.597.597 0 0 0 1 17.9v.58c0 .169.05.307.147.416a.485.485 0 0 0 .377.163h.524c.785 0 1.462-.314 2.03-.941.567-.628.85-1.376.85-2.245v-5.212h1.834a.485.485 0 0 0 .376-.163.597.597 0 0 0 .148-.417v-.579a.597.597 0 0 0-.148-.416.485.485 0 0 0-.376-.163H4.929V7.186c0-.41.125-.755.376-1.032.251-.278.562-.416.933-.416H7.81a.485.485 0 0 0 .376-.163.597.597 0 0 0 .147-.417Zm3.664 1.576c-.012-.146-.092-.269-.239-.367L11.316 6a.635.635 0 0 0-.46-.11.554.554 0 0 0-.387.257 11.65 11.65 0 0 0-1.583 3.232 11.852 11.852 0 0 0-.553 3.562c0 1.2.184 2.387.553 3.563a11.65 11.65 0 0 0 1.583 3.232.554.554 0 0 0 .387.257.636.636 0 0 0 .46-.11l.442-.368c.147-.098.227-.22.24-.367a.819.819 0 0 0-.093-.44 9.634 9.634 0 0 1-1.344-2.737 10.192 10.192 0 0 1 0-6.06 9.635 9.635 0 0 1 1.344-2.736.819.819 0 0 0 .092-.44Zm8.867-.587a11.65 11.65 0 0 1 1.584 3.232A11.85 11.85 0 0 1 23 12.94c0 1.2-.184 2.387-.552 3.563a11.65 11.65 0 0 1-1.584 3.232.554.554 0 0 1-.387.257.636.636 0 0 1-.46-.11l-.442-.368c-.147-.098-.227-.22-.239-.367a.819.819 0 0 1 .092-.44 9.634 9.634 0 0 0 1.344-2.737 10.192 10.192 0 0 0 0-6.06 9.635 9.635 0 0 0-1.344-2.736.819.819 0 0 1-.092-.44.445.445 0 0 1 .142-.29l.54-.445a.635.635 0 0 1 .46-.11c.16.024.288.11.386.257Zm-2.62 4.065-.451-.466a.434.434 0 0 0-.287-.099.537.537 0 0 0-.396.177l-1.443 1.482-1.444-1.482a.537.537 0 0 0-.395-.177.436.436 0 0 0-.361.177l-.454.464a.46.46 0 0 0-.096.294c0 .153.057.289.171.406l1.444 1.483-1.444 1.482a.566.566 0 0 0-.171.406c0 .153.057.276.171.37l.453.466c.08.066.175.1.287.1.149 0 .28-.06.395-.177l1.444-1.483 1.443 1.483a.537.537 0 0 0 .396.176c.149 0 .269-.059.36-.176l.454-.465a.46.46 0 0 0 .097-.294.565.565 0 0 0-.172-.406L16.8 12.47l1.444-1.483a.565.565 0 0 0 .172-.406.456.456 0 0 0-.172-.37Z"/></svg>
